X: 38455
T: Station Master's, The
R: waltz
M: 3/4
K: Gmajor
B B>c|:d2 g3d|c4 d>c|B2 G2 B>d|1 A4 G>A|B2 g3d|c2 B2 G2|
A6-|A3B B>c:|2 A2 G2 F/G/F|E2 c3B|A/B/A G2 F2|G6-|G3B B>c:|
A B>d|:e3c e>g|f2 e2 d2|1 d3B d>e|B2 c2 d>D|c3B A>G|
F2 e2 d2|d3e d>c|B2 g>a e/f/g:|2 d2 B>d f/g/a|g2 d2 B>d|
c2 E>G c>B|A/B/A G2 F2|G6-|G3A B>d:|

